X:5952
T:Gan ainm
R:Reel
S:
H:
N:
D:Dervish
Z:Adrian Scahill
M:4/4
L:1/8
K:G
E2FD E2FA|BdAB defd|edfe dAAd|BdAF DEFD|\
EBAF E2FA|BdAB defd|edfe dBAF|1 DEFD E3D:|2 DEFD E3A||\
Bee2 fded|BdAB dAFA|Beef dAde|fdaf gefd|\
Beeg fded|BdAB defd|edfe dBAF|DEFD E3A:||
